Papirus/48x48/devices/network-vpn.svg

<svg xmlns="http://www.w3.org/2000/svg" width="48" height="48" version="1">
 <path fill="#d2d2d2" d="m24 4c-6.648 0-12 5.352-12 12v4h4v-3c0-4.432 3.568-8 8-8s8 3.568 8 8v3h4v-4c0-6.648-5.352-12-12-12z"/>
 <rect fill="#fecd38" width="24" height="32" x="-44" y="-40" rx="2" ry="2" transform="matrix(0,-1,-1,0,0,0)"/>
 <path fill="#fff" opacity=".2" d="m24 4c-6.648 0-12 5.352-12 12v1c0-6.648 5.352-12 12-12s12 5.352 12 12v-1c0-6.648-5.352-12-12-12z"/>
 <path fill="#fff" opacity=".2" d="m10 20c-1.108 0-2 0.892-2 2v1c0-1.108 0.892-2 2-2h28c1.108 0 2 0.892 2 2v-1c0-1.108-0.892-2-2-2h-28z"/>
 <path opacity=".2" d="m24 9c-4.432 0-8 3.568-8 8v1c0-4.432 3.568-8 8-8s8 3.568 8 8v-1c0-4.432-3.568-8-8-8z"/>
 <path fill="#fff" opacity=".1" d="m8 39v2c0 1.108 0.892 2 2 2h28c1.108 0 2-0.892 2-2v-2c0 1.108-0.892 2-2 2h-28c-1.108 0-2-0.892-2-2z"/>
 <path fill="#cb9a05" d="m8 40v2c0 1.108 0.892 2 2 2h28c1.108 0 2-0.892 2-2v-2c0 1.108-0.892 2-2 2h-28c-1.108 0-2-0.892-2-2z"/>
 <rect fill="#fed96a" width="32" height="14" x="8" y="24" rx="0" ry="0"/>
 <path opacity=".2" d="m8 42v1c0 1.108 0.892 2 2 2h28c1.108 0 2-0.892 2-2v-1c0 1.108-0.892 2-2 2h-28c-1.108 0-2-0.892-2-2z"/>
</svg>

<svg xmlns="http://www.w3.org/2000/svg" width="48" height="48" version="1">
 <path style="fill:#b7b7b7" d="M 24,4 C 17.352,4 12,9.352 12,16 V 20 H 16 V 17 C 16,12.568 19.568,9 24,9 28.432,9 32,12.568 32,17 V 20 H 36 V 16 C 36,9.352 30.648,4 24,4 Z"/>
 <rect fill="#fecd38" width="24" height="32" x="-44" y="-40" rx="2" ry="2" transform="matrix(0,-1,-1,0,0,0)"/>
 <path fill="#fff" opacity=".2" d="m24 4c-6.648 0-12 5.352-12 12v1c0-6.648 5.352-12 12-12s12 5.352 12 12v-1c0-6.648-5.352-12-12-12z"/>
 <path fill="#fff" opacity=".2" d="m10 20c-1.108 0-2 0.892-2 2v1c0-1.108 0.892-2 2-2h28c1.108 0 2 0.892 2 2v-1c0-1.108-0.892-2-2-2h-28z"/>
 <path opacity=".2" d="m24 9c-4.432 0-8 3.568-8 8v1c0-4.432 3.568-8 8-8s8 3.568 8 8v-1c0-4.432-3.568-8-8-8z"/>
 <path fill="#fff" opacity=".1" d="m8 39v2c0 1.108 0.892 2 2 2h28c1.108 0 2-0.892 2-2v-2c0 1.108-0.892 2-2 2h-28c-1.108 0-2-0.892-2-2z"/>
 <path fill="#cb9a05" d="m8 40v2c0 1.108 0.892 2 2 2h28c1.108 0 2-0.892 2-2v-2c0 1.108-0.892 2-2 2h-28c-1.108 0-2-0.892-2-2z"/>
 <rect fill="#fed96a" width="32" height="14" x="8" y="24" rx="0" ry="0"/>
 <path opacity=".2" d="m8 42v1c0 1.108 0.892 2 2 2h28c1.108 0 2-0.892 2-2v-1c0 1.108-0.892 2-2 2h-28c-1.108 0-2-0.892-2-2z"/>
</svg>
